X:1
T:The Blarney Pilgrim
B:Francis O'Neill:"The Dance Music of Ireland" (1907) no. 291
R:jig
Z:Transcribed by Frank Nordberg - http://www.musicaviva.com
M:6/8
L:1/8
K:G
DED DEG | A2G ABc | BAG AGE | GEA GED | DED DEG | A2G ABc |
BAG AGE | GED D2z :: ded dBG | AGA BGE | ded dBG | AGA G3 |
g2e dBG | AGA BGE | B2G AGE | GED D2z :: A2D B2D | A2D ABc |
BAG AGE | GEA GED | A2D B2D | A2D ABc | BAG AGE | GED D2z :|
